svgs/light/high-definition.svg

<svg xmlns="http://www.w3.org/2000/svg" viewBox="0 0 576 512"><!--! Font Awesome Pro 6.1.1 by @fontawesome - https://fontawesome.com License - https://fontawesome.com/license (Commercial License) Copyright 2022 Fonticons, Inc. --><path d="M512 32H64C28.65 32 0 60.65 0 96v320c0 35.35 28.65 64 64 64h448c35.35 0 64-28.65 64-64V96C576 60.65 547.3 32 512 32zM544 416c0 17.64-14.36 32-32 32H64c-17.64 0-32-14.36-32-32V96c0-17.64 14.36-32 32-32h448c17.64 0 32 14.36 32 32V416zM256 160C247.2 160 240 167.2 240 176v64h-96v-64C144 167.2 136.8 160 128 160S112 167.2 112 176v160C112 344.8 119.2 352 128 352s16-7.156 16-16v-64h96v64C240 344.8 247.2 352 256 352s16-7.156 16-16v-160C272 167.2 264.8 160 256 160zM384 160h-48C327.2 160 320 167.2 320 176v160c0 8.844 7.156 16 16 16H384c52.94 0 96-43.06 96-96S436.9 160 384 160zM384 320h-32V192h32c35.28 0 64 28.7 64 64S419.3 320 384 320z"/></svg>

<svg xmlns="http://www.w3.org/2000/svg" viewBox="0 0 576 512"><!--! Font Awesome Pro 6.4.2 by @fontawesome - https://fontawesome.com License - https://fontawesome.com/license (Commercial License) Copyright 2023 Fonticons, Inc. --><path d="M512 64c17.7 0 32 14.3 32 32V416c0 17.7-14.3 32-32 32H64c-17.7 0-32-14.3-32-32V96c0-17.7 14.3-32 32-32H512zM64 32C28.7 32 0 60.7 0 96V416c0 35.3 28.7 64 64 64H512c35.3 0 64-28.7 64-64V96c0-35.3-28.7-64-64-64H64zM320 176V336c0 8.8 7.2 16 16 16h48c53 0 96-43 96-96s-43-96-96-96H336c-8.8 0-16 7.2-16 16zm64 16c35.3 0 64 28.7 64 64s-28.7 64-64 64H352V192h32zM144 176c0-8.8-7.2-16-16-16s-16 7.2-16 16v80 80c0 8.8 7.2 16 16 16s16-7.2 16-16V272h96v64c0 8.8 7.2 16 16 16s16-7.2 16-16V256 176c0-8.8-7.2-16-16-16s-16 7.2-16 16v64H144V176z"/></svg>
